public/Brands/OPTIMAL.svg

<svg xmlns="http://www.w3.org/2000/svg" fill="#1f2937" data-name="Template Capture.png" viewBox="0 45 969.4 141.52"><path d="M249.873 124.644v-7.757c16.057-2.207 29.893-8.299 29.337-27.672 0-16.612-13.835-21.595-29.337-22.692v-6.646h2.206c21.039 0 47.615 1.665 48.712 28.226.554 20.485-11.061 29.337-27.118 33.766-7.203 1.664-15.5 2.22-23.8 2.775m115.131 55.346v-55.901c.555-18.819.555-37.636.555-55.915-17.167 0-33.765.556-50.933 2.222V59.877h117.352a33.6 33.6 0 0 0 0 10.519 412 412 0 0 0-46.975-2.222V179.99a60 60 0 0 0-19.928 0zm93.551-120.113h19.36v119.002c-6.079-1.651-13.282-1.096-19.36 0zm52.584 119.002c3.87-19.928 7.743-39.857 11.614-59.217a1128 1128 0 0 0 9.965-59.785h5.537c10.52 15.501 21.581 30.448 32.1 45.949 10.519 14.933 21.593 30.433 32.114 45.381 11.06-14.948 21.58-30.448 32.655-45.381 10.519-15.501 21.579-30.448 32.653-45.949h4.983c2.762 19.929 5.536 39.857 8.853 59.785 2.847 19.374 6.093 39.302 9.409 59.217-3.316 0-7.743-1.096-11.074-1.096-5.523.541-8.854 1.096-9.965 1.096-2.219-15.489-3.885-30.434-6.092-45.38-1.665-14.946-3.871-29.894-5.536-44.841-10.521 14.392-21.04 28.782-31.005 43.73-9.963 14.947-19.928 29.892-28.227 45.395h-2.207c-9.408-14.947-19.373-29.893-29.338-44.84-9.964-14.39-19.928-29.338-29.337-44.285-2.762 14.392-5.538 29.895-7.743 44.841-1.667 14.946-3.332 30.432-3.332 45.38a39.55 39.55 0 0 0-16.042 0zm366.417 0V59.877h19.373v111.885c20.484 0 41.523-1.112 62.546-2.222a13.88 13.88 0 0 0 0 9.41zm-172.142-.555c11.629-20.469 23.8-40.952 35.986-61.993 11.616-20.47 23.8-40.953 35.97-61.437h4.983c11.63 20.484 23.245 40.967 35.431 61.437 11.616 21.041 23.245 41.524 34.874 61.993zM88.793 57.114c18.818.556 39.301 4.428 55.913 13.282 16.599 9.41 28.783 24.355 28.783 46.491-.554 23.245-11.629 39.3-27.672 49.266-16.056 10.519-37.096 14.946-57.024 14.946v-4.981a68.17 68.17 0 0 0 44.84-16.058 61.33 61.33 0 0 0 18.818-43.173c0-18.262-7.19-31.545-18.818-40.399-11.075-8.868-26.563-13.836-43.731-13.836h-1.109zm161.08 2.763v6.646c-9.963-.554-21.038 0-29.338 0v50.917c8.3 0 19.375.557 29.338-.553v7.757h-29.324v54.235a57.5 57.5 0 0 0-19.374 0V59.877zM4.181 119.662c0-21.594 10.519-37.096 26.021-47.6 15.488-9.965 35.972-14.948 55.344-14.948h3.318v5.538c-17.708 0-33.765 5.522-44.826 14.932-11.629 9.964-18.263 24.357-18.263 43.175s6.634 32.112 17.708 41.521c11.074 8.855 27.117 13.838 44.84 13.838h.541v4.981h-2.205c-19.932 0-40.415-3.871-55.915-13.28-15.56-9.964-26.563-24.911-26.563-48.157"/></svg>

<?xml version="1.0" encoding="utf-8"?>
<svg id="Template_Capture.png" data-name="Template Capture.png" viewBox="0 45 969.4 141.52" fill="#fff" xmlns="http://www.w3.org/2000/svg">
<path fill="#fff" d="M 249.873 124.644 L 249.873 116.887 C 265.93 114.68 279.766 108.588 279.21 89.215 C 279.21 72.603 265.375 67.62 249.873 66.523 L 249.873 59.877 L 252.079 59.877 C 273.118 59.877 299.694 61.542 300.791 88.103 C 301.345 108.588 289.73 117.44 273.673 121.869 C 266.47 123.533 258.173 124.089 249.873 124.644 Z M 365.004 179.99 L 365.004 124.089 C 365.559 105.27 365.559 86.453 365.559 68.174 C 348.392 68.174 331.794 68.73 314.626 70.396 L 314.626 59.877 L 431.978 59.877 C 431.425 63.36 431.425 66.911 431.978 70.396 C 416.375 68.762 400.692 68.02 385.003 68.174 L 385.003 179.99 C 378.407 178.879 371.672 178.879 365.075 179.99 L 365.004 179.99 Z M 458.555 59.877 L 477.915 59.877 L 477.915 178.879 C 471.836 177.228 464.633 177.783 458.555 178.879 L 458.555 59.877 Z M 511.139 178.879 C 515.009 158.951 518.882 139.022 522.753 119.662 C 526.625 99.734 529.947 79.806 532.718 59.877 L 538.255 59.877 C 548.775 75.378 559.836 90.325 570.355 105.826 C 580.874 120.759 591.948 136.259 602.469 151.207 C 613.529 136.259 624.049 120.759 635.124 105.826 C 645.643 90.325 656.703 75.378 667.777 59.877 L 672.76 59.877 C 675.522 79.806 678.296 99.734 681.613 119.662 C 684.46 139.036 687.706 158.964 691.022 178.879 C 687.706 178.879 683.279 177.783 679.948 177.783 C 674.425 178.324 671.094 178.879 669.983 178.879 C 667.764 163.39 666.098 148.445 663.891 133.499 C 662.226 118.553 660.02 103.605 658.355 88.658 C 647.834 103.05 637.315 117.44 627.35 132.388 C 617.387 147.335 607.422 162.28 599.123 177.783 L 596.916 177.783 C 587.508 162.836 577.543 147.89 567.578 132.943 C 557.614 118.553 547.65 103.605 538.241 88.658 C 535.479 103.05 532.703 118.553 530.498 133.499 C 528.831 148.445 527.166 163.931 527.166 178.879 C 521.875 177.783 516.414 177.783 511.124 178.879 L 511.139 178.879 Z M 877.556 178.879 L 877.556 59.877 L 896.929 59.877 L 896.929 171.762 C 917.413 171.762 938.452 170.65 959.475 169.54 C 958.379 172.581 958.379 175.909 959.475 178.95 L 877.556 178.879 Z M 705.414 178.324 C 717.043 157.855 729.214 137.372 741.4 116.331 C 753.016 95.861 765.2 75.378 777.37 54.894 L 782.353 54.894 C 793.983 75.378 805.598 95.861 817.784 116.331 C 829.4 137.372 841.029 157.855 852.658 178.324 L 705.414 178.324 Z M 88.793 57.114 C 107.611 57.67 128.094 61.542 144.706 70.396 C 161.305 79.806 173.489 94.751 173.489 116.887 C 172.935 140.132 161.86 156.187 145.817 166.153 C 129.761 176.672 108.721 181.099 88.793 181.099 L 88.793 176.118 C 105.183 176.331 121.103 170.631 133.633 160.06 C 145.402 148.748 152.174 133.209 152.451 116.887 C 152.451 98.625 145.261 85.342 133.633 76.488 C 122.558 67.62 107.07 62.652 89.902 62.652 L 88.793 62.652 L 88.793 57.114 Z M 249.873 59.877 L 249.873 66.523 C 239.91 65.969 228.835 66.523 220.535 66.523 L 220.535 117.44 C 228.835 117.44 239.91 117.997 249.873 116.887 L 249.873 124.644 L 220.549 124.644 L 220.549 178.879 C 214.137 177.783 207.588 177.783 201.175 178.879 L 201.175 59.877 L 249.873 59.877 Z M 4.181 119.662 C 4.181 98.068 14.7 82.566 30.202 72.062 C 45.69 62.097 66.174 57.114 85.546 57.114 L 88.864 57.114 L 88.864 62.652 C 71.156 62.652 55.099 68.174 44.038 77.584 C 32.409 87.548 25.775 101.941 25.775 120.759 C 25.775 139.577 32.409 152.871 43.483 162.28 C 54.557 171.135 70.6 176.118 88.323 176.118 L 88.864 176.118 L 88.864 181.099 L 86.659 181.099 C 66.727 181.099 46.244 177.228 30.744 167.819 C 15.184 157.855 4.181 142.908 4.181 119.662 Z"/>
</svg>
